X: 9
T: The Flowers Of Edinburgh
R: reel
M: 4/4
L: 1/8
K: Gmaj
|: (3DEF |G2 GA B2 AB | cBAG E2 E2 | EFGE DEFG | AdBG E2 GE |
D2 DE G2 GA | BGBd efge | dBAG EDEG | (3ABA G2 G2 :|
|: (3def |g2 gf gbag | fefg a2 az | edef edBd | de-ed e2 ge |
dBGB d3 d | edef g2 fe | dBAG DEFG | (3ABA G2 G2 :|


Tune 2549	Setting 2549

